icons/solid/key.svg

<svg width="24" height="24" viewBox="0 0 24 24" fill="none" xmlns="http://www.w3.org/2000/svg">
<path fill-rule="evenodd" clip-rule="evenodd" d="M15.75 1.5C12.0221 1.5 9 4.52208 9 8.25C9 8.64372 9.03379 9.03016 9.0988 9.40639C9.16599 9.79527 9.06678 10.1226 8.87767 10.3117L2.37868 16.8107C1.81607 17.3733 1.5 18.1363 1.5 18.932V21.75C1.5 22.1642 1.83579 22.5 2.25 22.5H6C6.41421 22.5 6.75 22.1642 6.75 21.75V20.25H8.25C8.66421 20.25 9 19.9142 9 19.5V18H10.5C10.6989 18 10.8897 17.921 11.0303 17.7803L13.6883 15.1223C13.8774 14.9332 14.2047 14.834 14.5936 14.9012C14.9698 14.9662 15.3563 15 15.75 15C19.4779 15 22.5 11.9779 22.5 8.25C22.5 4.52208 19.4779 1.5 15.75 1.5ZM15.75 4.5C15.3358 4.5 15 4.83579 15 5.25C15 5.66421 15.3358 6 15.75 6C16.9926 6 18 7.00736 18 8.25C18 8.66421 18.3358 9 18.75 9C19.1642 9 19.5 8.66421 19.5 8.25C19.5 6.17893 17.8211 4.5 15.75 4.5Z" fill="#0F172A"/>
</svg>

<svg xmlns="http://www.w3.org/2000/svg" viewBox="0 0 24 24" fill="currentColor" aria-hidden="true" data-slot="icon">
  <path fill-rule="evenodd" d="M15.75 1.5a6.75 6.75 0 0 0-6.651 7.906c.067.39-.032.717-.221.906l-6.5 6.499a3 3 0 0 0-.878 2.121v2.818c0 .414.336.75.75.75H6a.75.75 0 0 0 .75-.75v-1.5h1.5A.75.75 0 0 0 9 19.5V18h1.5a.75.75 0 0 0 .53-.22l2.658-2.658c.19-.189.517-.288.906-.22A6.75 6.75 0 1 0 15.75 1.5Zm0 3a.75.75 0 0 0 0 1.5A2.25 2.25 0 0 1 18 8.25a.75.75 0 0 0 1.5 0 3.75 3.75 0 0 0-3.75-3.75Z" clip-rule="evenodd"/>
</svg>
